dist/svgs/team-compass.svg

<svg xmlns="http://www.w3.org/2000/svg" viewBox="0 0 512 512"><path d="M256 0q53 0 99.5 20T437 75t55 81.5 20 99.5-20 99.5-55 81.5-81.5 55-99.5 20-99.5-20T75 437t-55-81.5T0 256t20-99.5T75 75t81.5-55T256 0zm-13 77q0 13 13 13t13-13V38q0-12-13-12t-13 12v39zM77 269q13 0 13-13t-13-13H38q-12 0-12 13t12 13h39zm192 166q0-13-13-13t-13 13v39q0 12 13 12t13-12v-39zm100-274q5-9-2-16.5t-16-2.5l-136 74-73 135q-5 9 2.5 16.5T161 370l135-73zm105 108q12 0 12-13t-12-13h-39q-13 0-13 13t13 13h39z"/></svg>

<?xml version="1.0" encoding="UTF-8" standalone="no"?><svg   xmlns:svg="http://www.w3.org/2000/svg"   xmlns="http://www.w3.org/2000/svg"   version="1.1"   width="512"   height="512"   viewBox="0 0 512 512">  <path     d="M256 0Q309 0 355.5 20T437 75T492 156.5T512 256T492 355.5T437 437T355.5 492T256 512T156.5 492T75 437T20 355.5T0 256T20 156.5T75 75T156.5 20T256 0zM243 77Q243 90 256 90T269 77V38Q269 26 256 26T243 38V77zM77 269Q90 269 90 256T77 243H38Q26 243 26 256T38 269H77zM269 435Q269 422 256 422T243 435V474Q243 486 256 486T269 474V435zM369 161Q374 152 367 144.5T351 142L215 216L142 351Q137 360 144.5 367.5T161 370L296 297zM474 269Q486 269 486 256T474 243H435Q422 243 422 256T435 269H474z"     id="team-compass" /></svg>
